X: 56
T:Convenience, The
M:4/4
L:1/8
R:Reel
K:D
df f2 dfed| cAce gece| df f2 dfed| cABc d3 A| df f2 dfed| cAce gece |df
f2 dfed| cABc defg|
aAgA fAeA| Ae e2 Aeef | aAgA fAeA |Addc defg| aA A2 aA^gA| gA A2 gAgA| f
gaf gbag|[1 fdec defg:|[2 fdec dABc |]
dABA dABA| GAFA EADA| dABA dABA| FAEA D3 A| dABA dABA| GAFA EADA| dABA d
ABA| FAEA D3 A|
